X: 1
T:Forfeit of the Ship, The
M:4/4
L:1/8
R:Reel
O:Shetland
Z:Richard Robinson
Z:<URL:http://www.leeds.ac.uk/music/Info/RRTuneBk/contact
Z:tml>
K:D
"D"d2de dA F2 | "D"AB AF ED EF | \
"G"(3AAA AF AB de | "A"f2ed B2AB |
"D"d2de dA F2 | "Bm"AB AF ED EF | \
"G"(3AAA AF AB de | "A"f2ed B2AB ||
%  ABC2Win Version 2.1 10/21/2007|
"D"d2fd ad fd | "A"d2 fd eA Af |\
"D"a2-ae "G"fd ef | dB AF "Amodal"E2E2:|
